X: 6
T: Floating Crowbar, The
C: Brendan McGlinchey
Z: Jeremy
S: https://thesession.org/tunes/457#setting35545
R: reel
M: 4/4
L: 1/8
K: Dmix
|:AD (3DDD ADBD|ADDF ABAG|EG (3GGG AG (3GGG|EGGF GBdB|
ADFD ADFD|ADFD G2FG|A3B cded|cAGE D2FG:|
K: Dmaj
|:Addc d2cd|eaag efge|A3B AGEG|ABAG EFGB|
Addc d2cd|eaag efge|afge dfed|=cAGE D2FG:|

